build/Karasa-Jaga/scalable/actions/document-page-setup-symbolic.svg

<svg height="16" width="16" xmlns="http://www.w3.org/2000/svg"><g transform="matrix(.82578026 0 0 .82578026 18.580309 -2.825463)"><path d="m-19.472867 4.6325435-.07378 18.1646385h14.0000032v-14.0312499l-4.051223-4.1333886zm.605488.605488h8.476832l4.2384152 3.6329277v13.3207348h-12.7152472z" fill="#bebebe" fill-opacity=".902043"/><path d="m-9.90625 4.71875.146573 3.4832655 3.384677.0479845v-.53125l-3.09375-3z" fill="#bebebe"/><path d="m-17.656403 9.4764472v10.8987828c2.767552-.02909 5.667714 0 8.4768314 0v-2.421951h-6.0548794v-8.4768318z" fill="#bfbfbf" fill-opacity=".901961"/></g></svg>

<?xml version="1.0" encoding="UTF-8" standalone="no"?>
<!-- Created with Inkscape (http://www.inkscape.org/) -->

<svg
   xmlns:dc="http://purl.org/dc/elements/1.1/"
   xmlns:cc="http://creativecommons.org/ns#"
   xmlns:rdf="http://www.w3.org/1999/02/22-rdf-syntax-ns#"
   xmlns:svg="http://www.w3.org/2000/svg"
   xmlns="http://www.w3.org/2000/svg"
   xmlns:xlink="http://www.w3.org/1999/xlink"
   xmlns:sodipodi="http://sodipodi.sourceforge.net/DTD/sodipodi-0.dtd"
   xmlns:inkscape="http://www.inkscape.org/namespaces/inkscape"
   width="16px"
   height="16px"
   id="svg3925"
   version="1.1"
   inkscape:version="0.92.4 (unknown)"
   sodipodi:docname="document-page-setup-symbolic.svg">
  <defs
     id="defs3927">
    <linearGradient
       inkscape:collect="always"
       xlink:href="#linearGradient3569"
       id="linearGradient4548"
       gradientUnits="userSpaceOnUse"
       x1="136.23065"
       y1="40.918156"
       x2="54.675591"
       y2="-40.636906" />
    <linearGradient
       id="linearGradient3569">
      <stop
         id="stop3571"
         offset="0"
         style="stop-color:#161616;stop-opacity:1;" />
      <stop
         id="stop3573"
         offset="1"
         style="stop-color:#3a3a3a;stop-opacity:1;" />
    </linearGradient>
    <linearGradient
       id="linearGradient4565">
      <stop
         id="stop4567"
         offset="0"
         style="stop-color:#161616;stop-opacity:1;" />
      <stop
         id="stop4569"
         offset="1"
         style="stop-color:#3a3a3a;stop-opacity:1;" />
    </linearGradient>
  </defs>
  <sodipodi:namedview
     id="base"
     pagecolor="#ffffff"
     bordercolor="#666666"
     borderopacity="1.0"
     inkscape:pageopacity="0.0"
     inkscape:pageshadow="2"
     inkscape:zoom="22.197802"
     inkscape:cx="1.5173381"
     inkscape:cy="9.6171647"
     inkscape:current-layer="g7227"
     showgrid="true"
     inkscape:grid-bbox="true"
     inkscape:document-units="px"
     inkscape:window-width="1366"
     inkscape:window-height="714"
     inkscape:window-x="0"
     inkscape:window-y="28"
     inkscape:window-maximized="1"
     showguides="true"
     inkscape:guide-bbox="true">
    <inkscape:grid
       type="xygrid"
       id="grid7250" />
  </sodipodi:namedview>
  <metadata
     id="metadata3930">
    <rdf:RDF>
      <cc:Work
         rdf:about="">
        <dc:format>image/svg+xml</dc:format>
        <dc:type
           rdf:resource="http://purl.org/dc/dcmitype/StillImage" />
        <dc:title></dc:title>
      </cc:Work>
    </rdf:RDF>
  </metadata>
  <g
     id="layer1"
     inkscape:label="Layer 1"
     inkscape:groupmode="layer">
    <g
       id="g7227"
       transform="matrix(0.82578026,0,0,0.82578026,18.580309,-2.825463)">
      <path
         id="rect7217"
         d="m -19.472867,4.6325435 -0.07378,18.1646385 H -5.5466438 V 8.7659321 l -4.051223,-4.1333886 z m 0.605488,0.605488 h 8.476832 l 4.2384152,3.6329277 V 22.191694 H -18.867379 Z"
         style="fill:#bebebe;fill-opacity:0.9020427;stroke:none"
         inkscape:connector-curvature="0"
         sodipodi:nodetypes="cccccccccccc" />
      <path
         sodipodi:nodetypes="cccccc"
         inkscape:connector-curvature="0"
         id="path7212"
         d="M -9.90625,4.71875 -9.759677,8.2020155 -6.375,8.25 l 0,-0.53125 -3.09375,-3 z"
         style="fill:#bebebe;fill-opacity:1;stroke:none" />
      <path
         inkscape:connector-curvature="0"
         id="rect17490"
         d="m -17.656403,9.4764472 0,10.8987828 c 2.767552,-0.02909 5.667714,0 8.4768314,0 V 17.953279 H -15.234451 V 9.4764472 Z"
         style="fill:#bfbfbf;fill-opacity:0.90196078;stroke:none;stroke-width:1.21097589"
         sodipodi:nodetypes="ccccccc" />
    </g>
  </g>
</svg>
